src/assets/duotone/AlignHorizontally.svg

<?xml version="1.0" encoding="UTF-8"?>
<svg width="24" height="24" viewBox="0 0 24 24" xmlns="http://www.w3.org/2000/svg">
 <path d="m4.75 17.4v-10.8c0-1.5 0.64-2.1 2.23-2.1h1.04c1.59 0 2.23 0.6 2.23 2.1v10.8c0 1.5-0.64 2.1-2.23 2.1h-1.04c-1.59 0-2.23-0.6-2.23-2.1z"/>
 <path d="m4.75 12.75h-2c-0.41 0-0.75-0.34-0.75-0.75s0.34-0.75 0.75-0.75h2v1.5z"/>
 <path d="m13.25 11.25h-3v1.5h3v-1.5z"/>
 <path d="m21.25 12.75h-2.5v-1.5h2.5c0.41 0 0.75 0.34 0.75 0.75s-0.34 0.75-0.75 0.75z"/>
 <path d="m13.25 15.4v-6.8c0-1.5 0.64-2.1 2.23-2.1h1.04c1.59 0 2.23 0.6 2.23 2.1v6.8c0 1.5-0.64 2.1-2.23 2.1h-1.04c-1.59 0-2.23-0.6-2.23-2.1z" opacity=".4"/>
</svg>

<svg width="24" height="24" viewBox="0 0 24 24"  xmlns="http://www.w3.org/2000/svg">
<path d="M4.75 17.4V6.6C4.75 5.1 5.39 4.5 6.98 4.5H8.02C9.61 4.5 10.25 5.1 10.25 6.6V17.4C10.25 18.9 9.61 19.5 8.02 19.5H6.98C5.39 19.5 4.75 18.9 4.75 17.4Z" />
<path d="M4.75 12.75H2.75C2.34 12.75 2 12.41 2 12C2 11.59 2.34 11.25 2.75 11.25H4.75V12.75Z" />
<path d="M13.25 11.25H10.25V12.75H13.25V11.25Z" />
<path d="M21.25 12.75H18.75V11.25H21.25C21.66 11.25 22 11.59 22 12C22 12.41 21.66 12.75 21.25 12.75Z" />
<path opacity="0.4" d="M13.25 15.4V8.6C13.25 7.1 13.89 6.5 15.48 6.5H16.52C18.11 6.5 18.75 7.1 18.75 8.6V15.4C18.75 16.9 18.11 17.5 16.52 17.5H15.48C13.89 17.5 13.25 16.9 13.25 15.4Z" />
</svg>
